X:89
T:Polonäs ur Andreas Dahlgrens notbok nr 89
S:Andreas Dahlgren
R:Polska
O:Småland
B:Andreas Dahlgrens notbok
Z:Christian Fürst
M:3/4
L:1/8
K:D
|: d2 defg | af d2> f2 | ge B2 e2 | {d}c>eA>gf>e | d2 defg | af d2>f2 | ge B2 ed | Tc4 d2 !fine!:|: 
d>d d2 fd |  egAgfe | d>d d2 fd |  egAgfe |  
df aa b/2a/2g/2f/2 | ef gg a/2g/2f/2e/2 | df aa b/2a/2g/2f/2 | efgg a/2g/2f/2e/2!D.C.!:|

